X:1
T:Acht Lieder
T:Im Wald, im hellen Sonnenschein
T:Adolf Jensen (1837-1879)
T:Emanuel Geibel
T:Im Wald, im hellen Sonnenschein
T:Nr. 5 aus Acht Lieder, Op. 28
T:CPDL - Creative Commons Attribution Non Commercial 3.0
T:CPDL - Creative Commons Attribution Non Commercial 3.0
T:CPDL - Creative Commons Attribution Non Commercial 3.0
C:Adolf Jensen
Z:Emanuel Geibel
Z:CPDL - Creative Commons Attribution Non Commercial 3.0
%%score [ ( 1 2 ) ( 3 4 ) ]
L:1/8
Q:1/4=78
M:4/8
K:F
V:1 treble nm="Sopran\nAlt"
V:2 treble 
V:3 bass nm="Tenor\nBass"
V:4 bass 
V:1
"^Frisch und heiter"!mf! C | F3/2 E/4D/4CC | F>GA=B |!<(! ccc!<)!c |!>(! c2- c/B/A/!>)!G/ | %5
w: Im|Wald, im * hel- len|Son- nen- schein, wenn|al- le Knos- pen|sprin- * * gen, da|
!mf! F3/2 E/4D/4CC | F>GAF | E2 D!p!E | D2 C z | z/!<(! C/C/D/EF!<)! |!mf! A>GF z | %11
w: mag ich * ger- ne|mit- ten- drein eins|sin- gen, eins|sin- gen.|Wie mir zu Mut in|Leid und Lust,|
 z/!<(! F/F/G/AB!<)! |!f!!>(! d>c!>)!B!mf!!<(!F | BFBG | cG!<)!c!f!_e |!>(! d2 c!>)!!mf!d | %16
w: im Wa- chen und im|Träu- * men, das|stimm ich an aus|vol- ler Brust den|Bäu- men, den|
!>(! c2 B!>)!!p!B | A>GF=E | FAD!<(!E | F>GAB!<)! |!f! d2 c!mf!A | GAGA | FAcA | G>BAG | %24
w: Bäu- men. Und|sie ver- ste- hen|mich gar fein, die|Blät- ter al- le|lau- schen und|fall'n am rech- ten|Or- te ein, mit|Rau- * schen, mit|
!<(! F!<)!!>(!d!>)!c!p!A | GAGA | FAc!f!A | d2 A=B | =B2 c!mf!C | F3/2 E/4D/4CC | F>GA!<(!=B | %31
w: Rau- * schen, und|fall'n am rech- ten|Or- te ein, mit|Rau- schen, mit|Rau- schen. Und|wei- ter * wan- delt|Schall und Hall, in|
 cccc!<)! |!f! c2-!>(! c/B/A/!>)!G/ |!mf! F3/2 E/4D/4CC | F>GAF |!>(! E2 DE!>)! |!p! D2 C z | %37
w: Wip- feln, Feld und|Bü- * * schen, hell|schmet- tert * auch Frau|Nach- ti- gall da-|zwi- schen, da-|zwi- schen.|
 z/!<(! C/C/D/EF!<)! |!mf! A>GF z | z/!<(! F/F/G/AB!<)! |!f! d>cB!mf!B | F>GF!f!F | d3 G | %43
w: Da fühlt die Brust am|eig- nen Klang,|sie darf sich was er-|küh- * nen, o|fri- sche Lust: Ge-|sang! Ge-|
!>(! G3!>)! B | A2 GA | G2 F z/!f! F/ | F z/ G/G z/!>(! A/ | A3!>)!!<(! F/A/!<)! | %48
w: sang im|Grü- nen, im|Grü- nen! Ge-|sang! Ge- sang! Ge-|sang im *|
!f!!>(! c>d!>)!c!p! A/F/ | C4 | C3 |] %51
w: Grü- * nen, im *|Grü-|nen!|
V:2
 C | F3/2 E/4D/4CC | C>EFD | EG^F=F | F_ED/_D/C/E/ | F3/2 E/4D/4CC | C>EFC | =B,2 B,B, | =B,2 C x | %9
 x/ C/C/C/CC | DEF x | x/ F/F/F/EF | GAB D/C/ | B, D/C/B, _E/D/ | C _E/D/C_G | F2 _EF | _E2 DF | %17
 =E>EDD | D^CDC | D>FFF | E>FGE | EEEE | CFCF | E2 EE | F2 EE | EEEE | CFC C/^C/ | D2 DD | D2 CC | %29
 F3/2 E/4D/4CC | F>EFD | EG^F=F | E_ED/_D/C/E/ | F3/2 E/4D/4CC | C>EFC | =B,2 B,B, | =B,2 C x | %37
 x/ C/C/C/CC | DEF x | x/ F/F/F/FF | GABD | D>^CDD | F3 F | E3 E | E2 EE | E2 F x/ C/ | %46
 C x/ E/E x/ F/ | F3 F | E2 F F/C/ | (A,2 B,2) | A,3 |] %51
V:3
!mf! C, | F,3/2 E,/4D,/4C,C | C>CC_A, |!<(! G,_B,=A,!<)!_A, |!>(! G,^F,G,/=F,/E,/!>)!B,/ | %5
!mf! A,B,/=B,/C _B,/=G,/ | F,>CCA, | G,2 G,!p!G, | F,2 E, z | z/!<(! E,/E,/F,/G,A,!<)! | %10
!mf! B,>B,A, z | z/!<(! A,/A,/B,/CD!<)! |!f!!>(! _E2!>)! D!mf!!<(!A, | B,A,B,=B, | %14
 C=B,!<)!C!f!_B, |!>(! A,2 A,!>)!!mf!A, |!>(! A,2 B,!>)!!p!D | C>B,A,B, | A,G,F,!<(!A, | %19
 A,>DDD!<)! |!f! G,>A,B,!mf!C | B,CB,C | A,CA,C | B,>DCB, |!<(! A,!<)!!>(!=B,!>)!C!p!C | B,CB,C | %26
 A,CA,!f! A,/G,/ | F,2 F,F, | F,2 E,!mf!C, | F,3/2 E,/4D,/4C,B, | C>CC!<(!_A, | G,B,A,_A,!<)! | %32
!f! G,!>(!^F,G,/=F,/E,/!>)!B,/ |!mf! A,B,/=B,/C B,/=G,/ | F,>CCA, |!>(! G,2 G,G,!>)! | %36
!p! F,2 E, z | z/!<(! E,/E,/F,/G,A,!<)! |!mf! B,>B,A, z | z/!<(! A,/A,/B,/CD!<)! |!f! _E2 D!mf!F, | %41
 F,>E,F,!f!_A, | G,3 G, |!>(! G,>=A,B,!>)!D | C2 B,C | B,2 A, z/!f! A,/ | A, z/ C/C z/!>(! C/ | %47
 C3!>)!!<(! C!<)! |!f!!>(! B,2!>)! A,!p! C/A,/ | (F,2 E,2) | F,3 |] %51
V:4
 C, | F,3/2 E,/4D,/4C,B, | A,>G,F,F, | C,C,C,C, | C,D,G,,C,/C,/ | F,G,/^G,/A, C,/B,,/ | %6
w: ||||||
 A,,>C,F,F, | G,2 F,G, | G,,2 C,C, | C,>C,C,C, | C,>C,F,F, | F,>F,F,F, | F,2 B,, F,/_E,/ | %13
w: ||* * Wie|mir zu * *|* * * im|Wa- chen * *||
 D, F,/_E,/D, G,/F,/ | _E, G,/F,/E,C, | F,2 F,F, | B,,2 B,,B,, | C,>^C,D,G, | A,A,,D,A,, | %19
w: ||||||
 D,>B,A,G, | C,2 C,C | C,CC,C | F,C,F,C, | C,2 C,C, | F,G,C,C | C,CC,C | F,C,F, F,/E,/ | %27
w: ||||||||
 D,2 D,G,, | G,,2 C,C, | F,3/2 E,/4D,/4C,C, | A,>G,F,F, | C,C,C,C, | C,D,G,,C,/C,/ | %33
w: ||||||
 F,G,/^G,/A, C,/B,,/ | A,,>C,F,F, | G,2 F,G, | G,,2 C,C, | C,>C,C,C, | C,>C,F,F, | F,>F,F,F, | %40
w: |||* * Da|fühlt die * *|* * * sie|darf sich * *|
 F,2 B,B,, | B,,>B,,B,,C, | =B,,3 B,, | C,3 C, | C,2 C,C, | C,2 F, z | z3/2 C,/C, z/ F,/ | %47
w: |||||||
 F,3 A,/F,/ | C,2 F, F,/A,/ | (C2 C,2) | F,3 |] %51
w: ||||

